src/static/logos/zest.svg

<?xml version="1.0" encoding="UTF-8" standalone="no"?>
<svg width="256px" height="161px" viewBox="0 0 256 161" version="1.1" xmlns="http://www.w3.org/2000/svg" xmlns:xlink="http://www.w3.org/1999/xlink" preserveAspectRatio="xMidYMid">
    <g>
        <path d="M82.4251,0 L36.2951,79.9 L59.0991,119.287 L127.9371,0.056 L82.4251,0 Z M174.8811,0.113 L150.8731,0.084 L70.5911,139.135 L82.6211,159.912 L175.0771,160.025 L221.2071,80.126 L174.8811,0.113 Z M11.957,91.2895 C5.354,91.2895 0,85.9785 0,79.4265 C0,72.8755 5.354,67.5645 11.957,67.5645 C18.56,67.5645 23.914,72.8755 23.914,79.4265 C23.914,85.9785 18.56,91.2895 11.957,91.2895 Z M244.044,91.2895 C237.441,91.2895 232.087,85.9785 232.087,79.4265 C232.087,72.8755 237.441,67.5645 244.044,67.5645 C250.647,67.5645 256.001,72.8755 256.001,79.4265 C256.001,85.9785 250.647,91.2895 244.044,91.2895 Z" fill="#26CDAF"></path>
    </g>
</svg>

<svg width="256" height="161" xmlns="http://www.w3.org/2000/svg" preserveAspectRatio="xMidYMid"><path d="M82.425 0l-46.13 79.9L59.1 119.287 127.937.056 82.425 0zm92.456.113L150.873.084 70.591 139.135l12.03 20.777 92.456.113 46.13-79.899L174.881.113zM11.957 91.29C5.354 91.29 0 85.978 0 79.425c0-6.55 5.354-11.862 11.957-11.862 6.603 0 11.957 5.312 11.957 11.863 0 6.551-5.354 11.862-11.957 11.862zm232.087 0c-6.603 0-11.957-5.312-11.957-11.864 0-6.55 5.354-11.862 11.957-11.862 6.603 0 11.957 5.312 11.957 11.863 0 6.551-5.354 11.862-11.957 11.862z" fill="#26CDAF"/></svg>
